X: 28896
T: Myxamatosis
R: slip jig
M: 9/8
K: Gmixolydian
M:5/8
K: E Phrygian
|:E^GB Be|dcB AB|DAD Dc|dDA DF|
E^GB Be|dcB AB|dDc BA|^GAF E2:|
|:BEB cB|EB^G AF|DAD BA|dDc B^G|
[1 BEB cB|EB^G AF|dDc BA|^GAF E2:|
[2 eb^g c'a|b^ga fd|dcB ^GA|DFD E2||
|:DDE FD|B^GB AF|DED FE|CA,B, ^G,2|
DDE FD|B^GB AF|DED FA|^GAF E2:|

